X:328
T:Kazakh pop song from 1972
Z:Jack Campin, http://www.campin.me.uk/
F:Jack Campin's Nine-Note Tunebook
% last edit 03-02-2013
M:2/4
L:1/8
Q:1/4=84
N:I've no idea where I got this
K:DMin
(3D>EF   E>C | d>A  d2    |\
(3GAB    A>E | F>G  A2    |
(3d>cB   A>G | c>d  A2    |\
(3ABA (3(GF)E| F>E  D2    |
(3d>cB   A>G |(cA) (c/d/)A|\
(3ABA (3(GF)E| F>E  D2   |]


% == Iranian songs ==========================================================

